src/pos-icons/subway.svg

<svg height="24" viewBox="0 0 24 24" width="24" xmlns="http://www.w3.org/2000/svg"><path d="m8.5 15a1 1 0 0 1 1 1 1 1 0 0 1 -1 1 1 1 0 0 1 -1-1 1 1 0 0 1 1-1m-1.5-6h10v5h-10zm8.5 6a1 1 0 0 1 1 1 1 1 0 0 1 -1 1 1 1 0 0 1 -1-1 1 1 0 0 1 1-1m2.5.88v-6.88c0-2.62-2.68-3-6-3-3 0-6 .37-6 3v6.88a2.62 2.62 0 0 0 2.62 2.62l-1.12 1.12v.38h1.67l1.5-1.5h2.83l1.5 1.5h1.5v-.38l-1.13-1.12c1.45 0 2.63-1.17 2.63-2.62m-.2-13.08c2.67 1.04 4.2 3.25 4.2 6.06v13.14h-20v-13.14c0-2.81 1.53-5.02 4.2-6.06 1.8-.71 3.94-.8 5.8-.8s4 .09 5.8.8z"/></svg>

<?xml version="1.0" encoding="UTF-8"?><!DOCTYPE svg PUBLIC "-//W3C//DTD SVG 1.1//EN" "http://www.w3.org/Graphics/SVG/1.1/DTD/svg11.dtd"><svg xmlns="http://www.w3.org/2000/svg" xmlns:xlink="http://www.w3.org/1999/xlink" version="1.1" id="mdi-subway" width="24" height="24" viewBox="0 0 24 24"><path d="M8.5,15A1,1 0 0,1 9.5,16A1,1 0 0,1 8.5,17A1,1 0 0,1 7.5,16A1,1 0 0,1 8.5,15M7,9H17V14H7V9M15.5,15A1,1 0 0,1 16.5,16A1,1 0 0,1 15.5,17A1,1 0 0,1 14.5,16A1,1 0 0,1 15.5,15M18,15.88V9C18,6.38 15.32,6 12,6C9,6 6,6.37 6,9V15.88A2.62,2.62 0 0,0 8.62,18.5L7.5,19.62V20H9.17L10.67,18.5H13.5L15,20H16.5V19.62L15.37,18.5C16.82,18.5 18,17.33 18,15.88M17.8,2.8C20.47,3.84 22,6.05 22,8.86V22H2V8.86C2,6.05 3.53,3.84 6.2,2.8C8,2.09 10.14,2 12,2C13.86,2 16,2.09 17.8,2.8Z" /></svg>
